packages/kaspersky-hexa-ui-icons/src/iconsSVGs/48/DataMiningRule.svg

<svg xmlns="http://www.w3.org/2000/svg" width="48" height="48" fill="none" viewBox="0 0 48 48"><path fill="#000" fill-rule="evenodd" d="M11 0C8.2386 0 6 2.2386 6 5v12c0 .5523.4477 1 1 1s1-.4477 1-1V5c0-1.6569 1.3431-3 3-3h17.9688v8.0313c0 2.2091 1.7908 4 4 4H41V20c0 .5523.4477 1 1 1s1-.4477 1-1v-6.4056a5 5 0 0 0-1.4645-3.5356l-8.5943-8.5943A5 5 0 0 0 29.4056 0zm29.5606 12.0313a3 3 0 0 0-.4393-.5583L31.527 2.8787a3 3 0 0 0-.5582-.4393v7.5919c0 1.1045.8954 2 2 2zm-26.2677 3.2616c.3905-.3905 1.0237-.3905 1.4142 0l5 5c.3905.3905.3905 1.0237 0 1.4142l-5 5c-.3905.3905-1.0237.3905-1.4142 0s-.3905-1.0237 0-1.4142L17.5858 22H1c-.5523 0-1-.4477-1-1s.4477-1 1-1h16.5858l-3.2929-3.2929c-.3905-.3905-.3905-1.0237 0-1.4142M44.5858 28l-3.2929-3.2929c-.3905-.3905-.3905-1.0237 0-1.4142s1.0237-.3905 1.4142 0l4.9994 4.9994c.3905.3905.3911 1.0243.0006 1.4148l-5 5c-.3905.3905-1.0237.3905-1.4142 0s-.3905-1.0237 0-1.4142L44.5858 30H37a1 1 0 0 1-.0617-.0019C36.4471 33.9454 33.0803 37 29 37c-4.4183 0-8-3.5817-8-8s3.5817-8 8-8c4.0803 0 7.4471 3.0547 7.9383 7.0019A1 1 0 0 1 37 28zM29 23c-3.3137 0-6 2.6863-6 6s2.6863 6 6 6 6-2.6863 6-6-2.6863-6-6-6M8 25c0-.5523-.4477-1-1-1s-1 .4477-1 1v8c0 .5523.4477 1 1 1s1-.4477 1-1zm22 0c0-.5523-.4477-1-1-1s-1 .4477-1 1v4c0 .5523.4477 1 1 1h3c.5523 0 1-.4477 1-1s-.4477-1-1-1h-2zm-15.7071 6.2929c.3905-.3905 1.0237-.3905 1.4142 0l4.9994 4.9994c.3905.3905.3911 1.0243.0006 1.4148l-5 5c-.3905.3905-1.0237.3905-1.4142 0s-.3905-1.0237 0-1.4142L17.5858 38H1c-.5523 0-1-.4477-1-1s.4477-1 1-1h16.5858l-3.2929-3.2929c-.3905-.3905-.3905-1.0237 0-1.4142M41 38v5c0 1.6569-1.3431 3-3 3H11c-1.6569 0-3-1.3431-3-3v-2c0-.5523-.4477-1-1-1s-1 .4477-1 1v2c0 2.7614 2.2386 5 5 5h27c2.7614 0 5-2.2386 5-5v-5c0-.5523-.4477-1-1-1s-1 .4477-1 1"/></svg>

<svg width="48" height="48" viewBox="0 0 48 48" fill="none" xmlns="http://www.w3.org/2000/svg">
<g clip-path="url(#clip0_34142_43)">
<path fill-rule="evenodd" clip-rule="evenodd" d="M11 0C8.23858 0 6 2.23857 6 5V17C6 17.5523 6.44772 18 7 18C7.55228 18 8 17.5523 8 17V5C8 3.34315 9.34315 2 11 2H28.9688V10.0312C28.9688 12.2404 30.7596 14.0312 32.9688 14.0312H41V20C41 20.5523 41.4477 21 42 21C42.5523 21 43 20.5523 43 20V13.5944C43 12.2683 42.4732 10.9965 41.5355 10.0588L32.9412 1.46447C32.0035 0.526784 30.7317 0 29.4056 0H11ZM40.5606 12.0312C40.4378 11.8301 40.2907 11.6425 40.1213 11.473L31.527 2.87868C31.3575 2.70926 31.1699 2.56219 30.9688 2.43938V10.0312C30.9688 11.1358 31.8642 12.0312 32.9688 12.0312H40.5606Z" fill="black"/>
<path d="M8 25C8 24.4477 7.55228 24 7 24C6.44772 24 6 24.4477 6 25V33C6 33.5523 6.44772 34 7 34C7.55228 34 8 33.5523 8 33V25Z" fill="black"/>
<path d="M41 43V38C41 37.4477 41.4477 37 42 37C42.5523 37 43 37.4477 43 38V43C43 45.7614 40.7614 48 38 48H11C8.23858 48 6 45.7614 6 43V41C6 40.4477 6.44772 40 7 40C7.55228 40 8 40.4477 8 41V43C8 44.6569 9.34315 46 11 46H38C39.6569 46 41 44.6569 41 43Z" fill="black"/>
<path d="M15.7071 15.2929C15.3166 14.9024 14.6834 14.9024 14.2929 15.2929C13.9024 15.6834 13.9024 16.3166 14.2929 16.7071L17.5858 20H1C0.447715 20 0 20.4477 0 21C0 21.5523 0.447715 22 1 22H17.5858L14.2929 25.2929C13.9024 25.6834 13.9024 26.3166 14.2929 26.7071C14.6834 27.0976 15.3166 27.0976 15.7071 26.7071L20.7071 21.7071C21.0976 21.3166 21.0976 20.6834 20.7071 20.2929L15.7071 15.2929Z" fill="black"/>
<path d="M15.7071 31.2929C15.3166 30.9024 14.6834 30.9024 14.2929 31.2929C13.9024 31.6834 13.9024 32.3166 14.2929 32.7071L17.5858 36H1C0.447715 36 0 36.4477 0 37C0 37.5523 0.447715 38 1 38H17.5858L14.2929 41.2929C13.9024 41.6834 13.9024 42.3166 14.2929 42.7071C14.6834 43.0976 15.3166 43.0976 15.7071 42.7071L20.7071 37.7071C21.0976 37.3166 21.097 36.6828 20.7065 36.2923L15.7071 31.2929Z" fill="black"/>
<path d="M30 25C30 24.4477 29.5523 24 29 24C28.4477 24 28 24.4477 28 25V29C28 29.5523 28.4477 30 29 30H32C32.5523 30 33 29.5523 33 29C33 28.4477 32.5523 28 32 28H30V25Z" fill="black"/>
<path fill-rule="evenodd" clip-rule="evenodd" d="M44.5858 28L41.2929 24.7071C40.9024 24.3166 40.9024 23.6834 41.2929 23.2929C41.6834 22.9024 42.3166 22.9024 42.7071 23.2929L47.7065 28.2923C48.097 28.6828 48.0976 29.3166 47.7071 29.7071L42.7071 34.7071C42.3166 35.0976 41.6834 35.0976 41.2929 34.7071C40.9024 34.3166 40.9024 33.6834 41.2929 33.2929L44.5858 30H37C36.9793 30 36.9587 29.9994 36.9383 29.9981C36.4471 33.9454 33.0803 37 29 37C24.5817 37 21 33.4183 21 29C21 24.5817 24.5817 21 29 21C33.0803 21 36.4471 24.0546 36.9383 28.0019C36.9587 28.0006 36.9793 28 37 28H44.5858ZM29 23C25.6863 23 23 25.6863 23 29C23 32.3137 25.6863 35 29 35C32.3137 35 35 32.3137 35 29C35 25.6863 32.3137 23 29 23Z" fill="black"/>
</g>
<defs>
<clipPath id="clip0_34142_43">
<rect width="48" height="48" fill="white"/>
</clipPath>
</defs>
</svg>
